X:4161
T:Dingle Regatta
M:12/8
L:1/8
R:Slide
K:G maj
|:d^cd e2d BAB d2B|ABA AGA B2AG2B|d^cde2d BABd2B|ABAB2A G6:|:d3 def g
3g
fg|a2a aga b2a gfe|d3 def g2g gab|a2g f2e defg3:|:g3d3 BdBG3|FGA DEF 
G2Bd3|g3d3 BdBG3|FGA DEF G6:|
